contributed-vectors/artstation_alt_two.svg

<svg xmlns="http://www.w3.org/2000/svg" style="isolation:isolate" viewBox="0 0 192 192" width="256" height="256"><defs><clipPath id="a"><path d="M0 0h192v192H0z"/></clipPath></defs><g style="isolation:isolate" clip-path="url(#a)"><circle vector-effect="non-scaling-stroke" cx="96" cy="96" r="88" fill="#4A4A4A"/><g style="isolation:isolate" fill="#9ABEFF"><path d="M61.587 112.413l5.813 10.049.002.001a6.95 6.95 0 006.207 3.824l.005-.001v.001H112.2l-8.007-13.874H61.587zM130.413 112.484a6.917 6.917 0 00-1.111-3.768L106.691 69.41a6.948 6.948 0 00-6.142-3.697h-11.95l34.926 60.513 5.505-9.535c1.087-1.826 1.383-2.635 1.383-4.207zM98.499 102.555L82.888 75.517l-15.61 27.038h31.221z"/></g></g></svg>

<?xml version="1.0" encoding="UTF-8" standalone="no"?><!-- Generator: Gravit.io --><svg xmlns="http://www.w3.org/2000/svg" xmlns:xlink="http://www.w3.org/1999/xlink" style="isolation:isolate" viewBox="0 0 192 192" width="192pt" height="192pt"><defs><clipPath id="_clipPath_PUdffMWXayjLpUY3CVLKPHUP5yq66ivn"><rect width="192" height="192"/></clipPath></defs><g clip-path="url(#_clipPath_PUdffMWXayjLpUY3CVLKPHUP5yq66ivn)"><g style="isolation:isolate"><circle vector-effect="non-scaling-stroke" cx="96" cy="96" r="88" fill="rgb(74,74,74)"/><g style="isolation:isolate"><path d=" M 61.587 112.413 L 67.4 122.462 L 67.402 122.463 C 68.547 124.731 70.896 126.287 73.609 126.287 L 73.614 126.286 L 73.614 126.287 L 112.2 126.287 L 104.193 112.413 L 61.587 112.413 Z " fill="rgb(154,190,255)"/><path d=" M 130.413 112.484 C 130.413 111.095 130.004 109.802 129.302 108.716 L 106.691 69.41 C 105.524 67.211 103.212 65.713 100.549 65.713 L 88.599 65.713 L 123.525 126.226 L 129.03 116.691 C 130.117 114.865 130.413 114.056 130.413 112.484 Z " fill="rgb(154,190,255)"/><path d=" M 98.499 102.555 L 82.888 75.517 L 67.278 102.555 L 98.499 102.555 Z " fill="rgb(154,190,255)"/></g></g></g></svg>
